X:1
T:Title
%%score { ( 1 3 ) | ( 2 4 ) }
L:1/8
Q:1/4=108
M:4/4
K:Eb
V:1 treble nm="Grand Piano"
V:3 treble 
V:2 bass 
V:4 bass 
V:1
 [GB]2 [Gc]2 [Gc]2 [Ge]2 | [Ae]4[K:bass][K:treble] z4 | [DA]2 [Dc]2 [Ec]2 [Fd]2 | [_Gc]4 B4 | %4
w: George~W.~Martin * * *||||
 E2 G2 [=EA]2 [EG]2 | c4 F4 | F2 _G2 =G2 =A2 | [DFB]6 z2 | [_GB]2 [GB]2 [G=B]2 [Gc]2 | %9
w: |||||
 _d4[K:bass] A4 | _G2 [DGA]2 [GB]2 [DG=B]2 | _d8[K:bass] | B2 B2 =A2 B2 | d4 B4 | G2 B2 c2 F2 | %15
w: ||||||
 B8 | [B,GB]2 [Gc]2 [Gc]2 [Ge]2 | [Ae]4[K:bass][K:treble] z4 | [DA]2 [Dc]2 [Ec]2 [Fd]2 | %19
w: ||||
 [_Gc]4 B4 | E2 G2 [=EA]2 [EG]2 | [Ec]4 [=A,EF]4 | [CDA]2 [=B,DA]2 [_B,DG]2 [A,DF]2 | [G,B,E]8 |] %24
w: |||||
V:2
 [E,B,]2 [B,,B,]2 [E,B,]2 [B,,B,]2 | B,4 z4 | [B,,B,]2 [B,,A,]2 [B,,A,]2 [B,,A,]2 | E,4- [E,B,G]4 | %4
 [G,B,]2 [G,B,E]2 [C,B,]2 [C,B,]2 | [F,=A,E]4 [F,A,E]4 | [F,=A,C]2 [F,B,_D]2 [F,=B,=D]2 [F,CE]2 | %7
 [B,,B,]6 z2 | [_G,B,_D]2 [_D,B,D]2 [G,B,D]2 [D,B,D]2 | [=B,_DF]4 [B,DF]4 | %10
 [_G,B,D]2 [_D,B,]2 [G,B,D]2 [D,B,]2 | [=B,_DF]8 | [_G,_D_G]2 [G,DG]2 [G,CE]2 [G,D=E]2 | %13
 [F,B,F]4 [F,DF]4 | [F,_D=E]2 [F,DE]2 [F,=A,_E]2 [F,A,E]2 | B,,2- [B,,-C]2 [B,,-B,]2 [B,,A,]2 | %16
 E,2 [B,,B,]2 [E,B,]2 [B,,B,]2 | B,4 [F,B,]4 | [B,,B,]2 [B,,A,]2 [B,,A,]2 [B,,A,]2 | %19
 E,4- [E,B,G]4 | [G,B,]2 [G,B,E]2 [C,B,]2 [C,B,]2 | [F,=A,]4 F,4 | B,,2 B,,2 B,,2 B,,2 | E,8 |] %24
V:3
 x8 | z2[K:bass] B,,2[K:treble] [Ad]2 z2 | x8 | x8 | x8 | x8 | x8 | x8 | x8 | %9
 z2[K:bass] D,2 z2 D,2 | x8 | z2[K:bass] D,2 A,2 D,2 | x8 | x8 | x8 | D2 A2 G2 F2 | x8 | %17
 z2[K:bass] B,,2[K:treble] [Ad]4 | x8 | x8 | x8 | x8 | x8 | x8 |] %24
V:4
 x8 | F,2 z2 [F,B,]2 z2 | x8 | =A,4 z4 | x8 | x8 | x8 | x8 | x8 | A,2 z2 A,2 z2 | x8 | A,2 z2 z4 | %12
 x8 | x8 | x8 | F,2 z2 z4 | x8 | F,2 z2 z4 | x8 | B,4 z4 | x8 | x8 | x8 | x8 |] %24

